build/img/git.svg

<svg width="64" height="64" viewBox="0 0 32 32" fill="none" xmlns="http://www.w3.org/2000/svg">
<path d="M31.396 14.574L17.424 0.604025C17.2327 0.412629 17.0056 0.260799 16.7556 0.157211C16.5056 0.0536224 16.2376 0.000305176 15.967 0.000305176C15.6964 0.000305176 15.4284 0.0536224 15.1784 0.157211C14.9284 0.260799 14.7013 0.412629 14.51 0.604025L11.61 3.50403L15.29 7.18403C15.724 7.03584 16.1909 7.01266 16.6375 7.11712C17.084 7.22159 17.4922 7.44948 17.8155 7.77481C18.1387 8.10014 18.364 8.50978 18.4656 8.957C18.5672 9.40421 18.541 9.87098 18.39 10.304L21.936 13.852C22.4606 13.6673 23.0325 13.6667 23.5575 13.8504C24.0825 14.0341 24.5293 14.3911 24.8243 14.8626C25.1193 15.3341 25.2449 15.892 25.1805 16.4445C25.1161 16.997 24.8655 17.511 24.47 17.902C24.0696 18.3049 23.5417 18.5563 22.9765 18.6132C22.4113 18.6701 21.8439 18.529 21.3712 18.214C20.8985 17.899 20.5498 17.4297 20.3847 16.8862C20.2196 16.3427 20.2484 15.7587 20.466 15.234L17.16 11.926V20.632C17.6625 20.8808 18.0646 21.2942 18.2992 21.8035C18.5339 22.3127 18.5869 22.887 18.4494 23.4306C18.312 23.9742 17.9923 24.4543 17.5438 24.7908C17.0953 25.1273 16.5451 25.3 15.9847 25.28C15.4244 25.26 14.8878 25.0485 14.4644 24.6808C14.0411 24.3132 13.7565 23.8115 13.6582 23.2595C13.5599 22.7075 13.6537 22.1385 13.9241 21.6472C14.1945 21.156 14.625 20.7723 15.144 20.56V11.774C14.8446 11.6513 14.5724 11.4706 14.3432 11.2422C14.1139 11.0138 13.9321 10.7423 13.8083 10.4434C13.6845 10.1444 13.6211 9.82392 13.6217 9.50034C13.6223 9.17676 13.687 8.8565 13.812 8.55803L10.186 4.93003L0.605994 14.51C0.414597 14.7013 0.262768 14.9285 0.159179 15.1785C0.0555908 15.4285 0.00227356 15.6964 0.00227356 15.967C0.00227356 16.2376 0.0555908 16.5056 0.159179 16.7556C0.262768 17.0056 0.414597 17.2327 0.605994 17.424L14.578 31.396C14.7693 31.5874 14.9964 31.7393 15.2464 31.8428C15.4964 31.9464 15.7644 31.9997 16.035 31.9997C16.3056 31.9997 16.5736 31.9464 16.8236 31.8428C17.0736 31.7393 17.3007 31.5874 17.492 31.396L31.398 17.49C31.784 17.1034 32.0009 16.5794 32.0009 16.033C32.0009 15.4867 31.784 14.9626 31.398 14.576" fill="#F24E1E"/>
</svg>

<svg width="64" height="64" viewBox="0 0 32 32" fill="none" xmlns="http://www.w3.org/2000/svg"><path d="M31.396 14.574L17.424.604a2.06 2.06 0 00-2.914 0l-2.9 2.9 3.68 3.68a2.446 2.446 0 013.1 3.12l3.546 3.548a2.448 2.448 0 012.534 4.05 2.452 2.452 0 01-4.004-2.668l-3.306-3.308v8.706a2.452 2.452 0 11-2.016-.072v-8.786a2.451 2.451 0 01-1.332-3.216L10.186 4.93l-9.58 9.58a2.06 2.06 0 000 2.914l13.972 13.972a2.058 2.058 0 002.914 0L31.398 17.49a2.062 2.062 0 000-2.914" fill="#F24E1E"/></svg>
